icons/fill-new-location-map.svg

<svg xmlns="http://www.w3.org/2000/svg" width="32px" height="32px" viewBox="0 0 32 32" version="1.1">
    <title>fill-new-location-map</title>
    <g id="fill-new-location-map" stroke-width="1" fill-rule="evenodd">
        <path d="M16,2 C22.0751322,2 27,6.92486775 27,13 C27,19.0751322 21,26 16,30 L15.4509151,29.5522151 C10.5715702,25.4974969 5,18.8542183 5,13 C5,6.92486775 9.92486775,2 16,2 Z M5.48986194,21.1214023 C5.89159409,21.8250749 6.33596668,22.5268787 6.81851674,23.2231454 L4.962,28 L10.8027618,28.0003182 C11.4735346,28.6840441 12.1749372,29.3520829 12.9017719,30.0001629 L2.03815512,30 L5.48986194,21.1214023 Z M26.5095646,21.1224067 L29.9618449,30 L19.0982281,30.0001629 C19.8250628,29.3520829 20.5264654,28.6840441 21.1972382,28.0003182 L27.037,28 L25.1807905,23.2241449 C25.6633784,22.5278816 26.1077908,21.8260794 26.5095646,21.1224067 Z M16,7 C12.6862915,7 10,9.6862915 10,13 C10,16.3137085 12.6862915,19 16,19 C19.3137085,19 22,16.3137085 22,13 C22,9.6862915 19.3137085,7 16,7 Z M16,11 C17.1045695,11 18,11.8954305 18,13 C18,14.1045695 17.1045695,15 16,15 C14.8954305,15 14,14.1045695 14,13 C14,11.8954305 14.8954305,11 16,11 Z" id="&#24418;&#29366;" />
    </g>
</svg>

<svg xmlns="http://www.w3.org/2000/svg" viewBox="0 0 32 32"><path fill="currentColor" d="M16 2c6.075 0 11 4.925 11 11s-6 13-11 17l-.55-.448C10.573 25.497 5 18.854 5 13 5 6.925 9.925 2 16 2M5.49 21.121c.402.704.846 1.406 1.329 2.102L4.962 28h5.84c.672.684 1.373 1.352 2.1 2H2.038zm21.02.001L29.962 30H19.098a43.463 43.463 0 0 0 2.1-2h5.839l-1.856-4.776c.482-.696.927-1.398 1.329-2.102M16 7a6 6 0 1 0 0 12 6 6 0 0 0 0-12m0 4a2 2 0 1 1 0 4 2 2 0 0 1 0-4"/></svg>
